usr/share/icons/biglinux-icons-material/24/actions/go-next-use.svg

<svg xmlns="http://www.w3.org/2000/svg" viewBox="0 0 24 24"><path d="M4 4v7h16V4H4zm1 1h14v5H5V5zm-1 7v8l5-4-5-4zm8 1v3h2v-3h-2zm4 0v3h4v-3h-4z" style="fill:currentColor;fill-opacity:1;stroke:none;color:#dedede"/></svg>

<svg xmlns="http://www.w3.org/2000/svg" viewBox="0 0 24 24">
  <defs id="defs3051">
    <style type="text/css" id="current-color-scheme">
      .ColorScheme-Text {
        color:#dedede;
      }
      </style>
  </defs>
 <path style="fill:currentColor;fill-opacity:1;stroke:none" 
     d="M 4 4 L 4 5 L 4 11 L 5 11 L 20 11 L 20 10 L 20 4 L 19 4 L 5 4 L 4 4 z M 5 5 L 19 5 L 19 10 L 5 10 L 5 5 z M 4 12 L 4 20 L 9 16 L 4 12 z M 12 13 L 12 16 L 14 16 L 14 13 L 12 13 z M 16 13 L 16 16 L 20 16 L 20 13 L 16 13 z "
     class="ColorScheme-Text"
     />
</svg>
